icons/adonis.svg

<svg width="16" height="16" viewBox="0 0 16 16" fill="none" xmlns="http://www.w3.org/2000/svg">
<path fill-rule="evenodd" clip-rule="evenodd" d="M2.25405 10.1792L5.27439 3.68769C5.78426 2.59379 6.76451 2 8 2C9.23548 2 10.2157 2.59379 10.7256 3.68769L13.7454 10.1792C13.8827 10.4947 14 10.9023 14 11.2552C14 12.8682 12.804 14 11.0981 14C10.5169 14 10.0554 13.8595 9.58856 13.7179C9.10993 13.5724 8.6254 13.4246 8 13.4246C7.38226 13.4246 6.88594 13.5735 6.39788 13.7196C5.92573 13.8606 5.46065 14 4.90186 14C3.19599 14 2 12.8682 2 11.2547C2 10.9023 2.11789 10.4947 2.25464 10.1792H2.25405ZM7.99941 4.8195L5.01916 11.1995C5.90156 10.8097 6.92131 10.6241 7.99941 10.6241C9.03861 10.6241 10.0978 10.8097 10.9408 11.1995L7.99941 4.81894V4.8195Z" fill="#7C7CFF"/>
</svg>

<svg xmlns="http://www.w3.org/2000/svg" width="16" height="16" fill="none"><path fill="#7C7CFF" fill-rule="evenodd" d="m2.254 10.18 3.02-6.492C5.784 2.594 6.764 2 8 2c1.235 0 2.216.594 2.726 1.688l3.02 6.491c.137.316.254.723.254 1.076C14 12.868 12.804 14 11.098 14c-.581 0-1.043-.14-1.51-.282-.478-.146-.963-.293-1.588-.293-.618 0-1.114.148-1.602.295-.472.14-.937.28-1.496.28C3.196 14 2 12.868 2 11.255c0-.353.118-.76.255-1.076h-.001ZM8 4.82 5.02 11.2c.883-.39 1.902-.576 2.98-.576 1.04 0 2.099.186 2.942.575L7.999 4.82Z" clip-rule="evenodd"/></svg>
